svgs/charts/bar-chart-circle-02.svg

<svg width="24" height="24" viewBox="0 0 24 24" fill="none" xmlns="http://www.w3.org/2000/svg">
<g clip-path="url(#clip0_1541_51914)">
<path d="M8 18V20M12 14V20M16 10V20M22 15C22 20.5228 17.5228 25 12 25C6.47715 25 2 20.5228 2 15C2 9.47715 6.47715 5 12 5C17.5228 5 22 9.47715 22 15Z" stroke="#1C1D20" stroke-width="1.5" stroke-linecap="round" stroke-linejoin="round"/>
</g>
<defs>
<clipPath id="clip0_1541_51914">
<rect width="24" height="24" fill="white"/>
</clipPath>
</defs>
</svg>

<svg fill="none" xmlns="http://www.w3.org/2000/svg" viewBox="0 0 24 24"><g clip-path="url(#a)"><path d="M8 18v2m4-6v6m4-10v10m6-5c0 5.523-4.477 10-10 10S2 20.523 2 15 6.477 5 12 5s10 4.477 10 10Z" stroke="#1C1D20" stroke-width="1.5" stroke-linecap="round" stroke-linejoin="round"/></g><defs><clipPath id="a"><path fill="#fff" d="M0 0h24v24H0z"/></clipPath></defs></svg>
